X: 30010
T: Off She Goes
R: jig
M: 6/8
K: Dmajor
|:F2 A G2 B|ABc d3|F2 A G2 B|AGF E3|
F2 A G2 B|ABc d3|f2 d g2 f|edc d3:|
|:f2 a f2 d|[M:9/8] e2 f g2 b g2 e|[M:6/8] f2 a f2 d|e2 c A3|
f2 a f2 d|[M:9/8] e2 f g2 b g2 e|[M:6/8] f2 a f2 d|e3 d3:|

